svg/outdoor-lamp-variant.svg

<?xml version="1.0" encoding="UTF-8"?>
<!DOCTYPE svg PUBLIC "-//W3C//DTD SVG 1.1//EN" "http://www.w3.org/Graphics/SVG/1.1/DTD/svg11.dtd">
<svg xmlns="http://www.w3.org/2000/svg" xmlns:xlink="http://www.w3.org/1999/xlink" version="1.1"  width="24" height="24" viewBox="0 0 24 24">
    <path fill="#000000" d="M 3,3.5 V 12 H 5 V 8.7304688 C 5.5191446,8.5797659 6.1099058,8.3891115 6.4257812,8.2148438 7.0969155,7.8468698 7.46071,7.3740157 7.7832031,6.734375 7.8907005,6.5202028 7.9506444,6.3633648 8.0625,6.0097656 8.3428656,5.121456 8.5734017,4.6029303 9.0585938,4.2910156 9.4479096,4.0409087 9.7171975,3.9257813 10.347656,3.9257812 c 0.485193,0 0.695574,0.1063605 1.076172,0.3320313 0.781537,0.4628412 1.179515,1.2829292 1.275391,2.2402344 0.01988,0.7873898 0,2.1712518 0,3.0019531 L 6.3007812,14 H 21 L 14.570312,9.5 c 0.0054,-0.835877 0.02975,-2.573053 0,-3.3535156 -0.05084,-0.3535982 -0.149765,-0.6034751 -0.25,-0.9082032 C 13.788635,3.6168994 12.646767,2.39826 11.048828,2.0820312 10.713299,2.0159133 10.813414,2.0078125 10.339844,2.0078125 9.8314075,2.0092125 9.8490576,2.0240449 9.4335938,2.1074219 7.8095076,2.4351365 6.9140032,3.5301532 6.3242188,5.4160156 6.2138159,5.7696157 6.175259,5.8544504 6.0546875,6.03125 5.9573585,6.1721148 5.8558988,6.2815684 5.7324219,6.375 5.5255835,6.5318378 5.2811285,6.6799912 5,6.7929688 V 3.5 Z M 10.650391,15 c -6.56e-4,1.707062 -0.0057,3.417393 0.01367,5.123047 0.102987,0.926752 1.062063,1.656474 2.427735,1.849609 0.264179,0.03743 0.854959,0.03743 1.119141,0 1.085818,-0.154207 1.928946,-0.651271 2.271484,-1.333984 0.07836,-0.157204 0.133862,-0.339612 0.15625,-0.53125 0.02725,-1.700542 0.01172,-3.405638 0.01172,-5.107422 z" />
</svg>

<?xml version="1.0" encoding="UTF-8"?>
<!DOCTYPE svg PUBLIC "-//W3C//DTD SVG 1.1//EN" "http://www.w3.org/Graphics/SVG/1.1/DTD/svg11.dtd">
<svg xmlns="http://www.w3.org/2000/svg" xmlns:xlink="http://www.w3.org/1999/xlink" version="1.1"  width="24" height="24" viewBox="0 0 24 24">
<path d="m3 3.5v8.5h2v-3.2695c0.51914-0.1507 1.1099-0.34136 1.4258-0.51562 0.67113-0.36797 1.0349-0.84083 1.3574-1.4805 0.1075-0.21417 0.16744-0.37101 0.2793-0.72461 0.28037-0.88831 0.5109-1.4068 0.99609-1.7188 0.38932-0.25011 0.6586-0.36523 1.2891-0.36523 0.48519 0 0.69557 0.10636 1.0762 0.33203 0.78154 0.46284 1.1795 1.2829 1.2754 2.2402 0.01988 0.78739 0 2.1713 0 3.002l-6.3984 4.5h14.699l-6.4297-4.5c0.0054-0.83588 0.02975-2.5731 0-3.3535-0.05084-0.3536-0.14976-0.60348-0.25-0.9082-0.53168-1.6214-1.6735-2.84-3.2715-3.1562-0.33553-0.066118-0.23541-0.074219-0.70898-0.074219-0.50844 0.0014-0.49079 0.016232-0.90625 0.099609-1.6241 0.32771-2.5196 1.4227-3.1094 3.3086-0.1104 0.3536-0.14896 0.43843-0.26953 0.61523-0.097329 0.14086-0.19879 0.25032-0.32227 0.34375-0.20684 0.15684-0.45129 0.30499-0.73242 0.41797v-3.293zm7.6504 11.5c-6.56e-4 1.7071-0.0057 3.4174 0.01367 5.123 0.10299 0.92675 1.0621 1.6565 2.4277 1.8496 0.26418 0.03743 0.85496 0.03743 1.1191 0 1.0858-0.15421 1.9289-0.65127 2.2715-1.334 0.07836-0.1572 0.13386-0.33961 0.15625-0.53125 0.02725-1.7005 0.01172-3.4056 0.01172-5.1074z"/>
</svg>
